docs/assets/img/details/locality/bus-station(1).svg

<?xml version="1.0" encoding="UTF-8"?>
<svg width="40px" height="35px" viewBox="0 0 40 35" version="1.1" xmlns="http://www.w3.org/2000/svg" xmlns:xlink="http://www.w3.org/1999/xlink">
    <title>bus-station(1)</title>
    <g id="Welcome" stroke="none" stroke-width="1" fill="none" fill-rule="evenodd">
        <g id="lpw-featured-development-detailed-page-1.0" transform="translate(-300.000000, -9903.000000)" fill="#000000" fill-rule="nonzero">
            <g id="bus-station(1)" transform="translate(300.000000, 9903.000000)">
                <path d="M23.6334375,0.0506165919 L3.16382812,0.0506165919 C1.41929687,0.0506165919 -5.68434189e-14,1.48020179 -5.68434189e-14,3.23742152 L-5.68434189e-14,29.8547646 C-5.68434189e-14,30.2881054 0.349765625,30.6395179 0.78125,30.6395179 L1.6603125,30.6395179 L1.6603125,34.1647085 C1.6603125,34.5980493 2.01007812,34.9494619 2.4415625,34.9494619 L7.40203125,34.9494619 C7.83351562,34.9494619 8.18328125,34.5980493 8.18328125,34.1647085 L8.18328125,30.6395179 L18.6139844,30.6395179 L18.6139844,34.1647085 C18.6139844,34.5980493 18.96375,34.9494619 19.3952344,34.9494619 L24.3557031,34.9494619 C24.7871875,34.9494619 25.1369531,34.5980493 25.1369531,34.1647085 L25.1369531,30.6395179 L26.0160156,30.6395179 C26.4475,30.6395179 26.7972656,30.2881054 26.7972656,29.8547646 L26.7972656,3.23742152 C26.7972656,1.48020179 25.3779687,0.0506165919 23.6334375,0.0506165919 Z M3.16382812,1.62012332 L23.6334375,1.62012332 C24.5164062,1.62012332 25.2347656,2.3456278 25.2347656,3.23742152 L25.2347656,5.7508296 C24.6585156,5.35264574 23.9615625,5.11941704 23.2115625,5.11941704 L3.58570312,5.11941704 C2.83570312,5.11941704 2.13875,5.35264574 1.5625,5.7508296 L1.5625,3.23742152 C1.5625,2.3456278 2.28085937,1.62012332 3.16382812,1.62012332 L3.16382812,1.62012332 Z M25.2346875,17.588991 L14.1798437,17.588991 L14.1798437,6.68884529 L23.2114062,6.68884529 C24.3270312,6.68884529 25.2346875,7.60528027 25.2346875,8.73163677 L25.2346875,17.588991 L25.2346875,17.588991 Z M1.5625,8.73171525 C1.5625,7.60528027 2.47015625,6.68892377 3.58570312,6.68892377 L12.6173437,6.68892377 L12.6173437,17.588991 L1.5625,17.588991 L1.5625,8.73171525 Z M1.5625,22.7762892 L4.45476562,22.7762892 L4.45476562,24.5145179 L1.5625,24.5145179 L1.5625,22.7762892 Z M6.62078125,33.3798767 L3.2228125,33.3798767 L3.2228125,30.6394395 L6.62078125,30.6394395 L6.62078125,33.3798767 Z M23.574375,33.3798767 L20.1764062,33.3798767 L20.1764062,30.6394395 L23.574375,30.6394395 L23.574375,33.3798767 Z M1.5625,29.0700897 L1.5625,26.0841031 L5.23601562,26.0841031 C5.6675,26.0841031 6.01726562,25.7326906 6.01726562,25.2993498 L6.01726562,21.9916143 C6.01726562,21.5582735 5.6675,21.206861 5.23601562,21.206861 L1.5625,21.206861 L1.5625,19.1584978 L25.2346875,19.1584978 L25.2346875,21.206861 L21.5611719,21.206861 C21.1296875,21.206861 20.7799219,21.5582735 20.7799219,21.9916143 L20.7799219,26.0932063 C20.7799219,26.5265471 21.1296875,26.8779596 21.5611719,26.8779596 L25.2346875,26.8779596 L25.2346875,29.0700897 L1.5625,29.0700897 L1.5625,29.0700897 Z M25.2346875,25.3083744 L22.3424219,25.3083744 L22.3424219,22.7762892 L25.2346875,22.7762892 L25.2346875,25.3083744 Z" id="Shape"></path>
                <path d="M17.9897656,21.2067825 L8.80742187,21.2067825 C8.3759375,21.2067825 8.02617187,21.5581951 8.02617187,21.9915359 L8.02617187,26.0931278 C8.02617187,26.5264686 8.3759375,26.8778812 8.80742187,26.8778812 L17.9897656,26.8778812 C18.42125,26.8778812 18.7710156,26.5264686 18.7710156,26.0931278 L18.7710156,21.9915359 C18.7710156,21.5581951 18.42125,21.2067825 17.9897656,21.2067825 Z M17.2085156,25.3083744 L9.58867187,25.3083744 L9.58867187,22.7762892 L17.2085156,22.7762892 L17.2085156,25.3083744 Z" id="Shape"></path>
                <path d="M40,6.42257848 C40,3.28952915 37.470625,0.740650224 34.3614844,0.740650224 C31.2523437,0.740650224 28.7229687,3.28952915 28.7229687,6.42257848 C28.7229687,9.28857623 30.8395313,11.6656726 33.5802344,12.0502018 L33.5802344,34.1647085 C33.5802344,34.5980493 33.93,34.9494619 34.3614844,34.9494619 C34.7929688,34.9494619 35.1427344,34.5980493 35.1427344,34.1647085 L35.1427344,12.0501233 C37.8834375,11.6656726 40,9.28849776 40,6.42257848 Z M34.3614844,10.535 C32.1139844,10.535 30.2854687,8.69012332 30.2854687,6.42257848 C30.2854687,4.15503363 32.1139844,2.31015695 34.3614844,2.31015695 C36.6089844,2.31015695 38.4375,4.15495516 38.4375,6.42257848 C38.4375,8.69020179 36.6089844,10.535 34.3614844,10.535 Z" id="Shape"></path>
            </g>
        </g>
    </g>
</svg>

<svg width="40" height="35" xmlns="http://www.w3.org/2000/svg"><path d="M23.633.05H3.163C1.42.05 0 1.48 0 3.238v26.618c0 .433.35.785.781.785h.88v3.525c0 .433.35.784.78.784h4.961a.783.783 0 00.781-.784V30.64h10.431v3.525c0 .433.35.784.781.784h4.96a.783.783 0 00.782-.784V30.64h.879a.783.783 0 00.781-.785V3.237c0-1.757-1.419-3.186-3.164-3.186zM3.163 1.62h20.47c.883 0 1.602.726 1.602 1.617v2.514a3.547 3.547 0 00-2.023-.632H3.586c-.75 0-1.447.234-2.023.632V3.237a1.61 1.61 0 011.6-1.617zm22.073 15.97H14.18V6.69h9.031c1.116 0 2.024.916 2.024 2.043v8.857zM1.563 8.732c0-1.127.907-2.043 2.023-2.043h9.031v10.9H1.562V8.732zm0 14.044h2.892v1.739H1.562v-1.739zM6.62 33.38H3.223v-2.74H6.62v2.74zm16.953 0h-3.398v-2.74h3.398v2.74zM1.562 29.07v-2.986h3.674a.783.783 0 00.781-.785v-3.307a.783.783 0 00-.781-.785H1.563v-2.049h23.672v2.049H21.56a.783.783 0 00-.781.785v4.101c0 .434.35.785.781.785h3.674v2.192H1.563zm23.673-3.762h-2.893v-2.532h2.893v2.532z"/><path d="M17.99 21.207H8.807a.783.783 0 00-.78.785v4.101c0 .433.349.785.78.785h9.183a.783.783 0 00.781-.785v-4.101a.783.783 0 00-.781-.785zm-.781 4.101h-7.62v-2.532h7.62v2.532zM40 6.423C40 3.29 37.47.74 34.361.74c-3.109 0-5.638 2.549-5.638 5.682 0 2.866 2.117 5.243 4.857 5.627v22.115c0 .433.35.784.781.784a.783.783 0 00.782-.784V12.05C37.883 11.666 40 9.288 40 6.423zm-5.639 4.112c-2.247 0-4.076-1.845-4.076-4.112 0-2.268 1.829-4.113 4.076-4.113 2.248 0 4.077 1.845 4.077 4.113 0 2.267-1.829 4.112-4.077 4.112z"/></svg>
